;FLAVOR:Marlin
;TIME:10341
;Filament used: 12.6073m
;Layer height: 0.2
;MINX:84.4
;MINY:70.401
;MINZ:0.36
;MAXX:175.6
;MAXY:239.6
;MAXZ:5.11
;TARGET_MACHINE.NAME:Unknown
;Generated with Cura_SteamEngine 5.6.0
M140 S60
M105
M190 S60
M104 S200
M105
M109 S200
M82 ;absolute extrusion mode
G28 ;Home
G1 Z15.0 F6000 ;Move the platform down 15mm
;Prime the extruder
G92 E0
G1 F200 E3
G92 E0
G92 E0
G92 E0
G1 F1500 E-6.5
;LAYER_COUNT:19
;LAYER:-6
M107
G0 F7200 X89.701 Y76.603 Z0.36
;TYPE:SUPPORT-INTERFACE
G1 F1500 E0
G1 F1350 X90.312 Y75.977 E0.10474
G1 X91.162 Y75.212 E0.24167
G1 X92.317 Y74.353 E0.41402
G1 X94.002 Y73.226 E0.65674
G1 X94.819 Y72.722 E0.77168
G1 X95.762 Y72.226 E0.89926
G1 X96.748 Y71.796 E1.02806
G1 X97.796 Y71.426 E1.16113
G1 X99.19 Y71.075 E1.33325
G1 X101.169 Y70.678 E1.57493
G1 X102.175 Y70.518 E1.6969
G1 X103.198 Y70.425 E1.8199
G1 X104.025 Y70.401 E1.91896
G1 X156.008 Y70.402 E8.14322
G1 X157.138 Y70.448 E8.27864
G1 X158.141 Y70.562 E8.39951
G1 X158.809 Y70.674 E8.48061
G1 X160.738 Y71.057 E8.71609
G1 X161.714 Y71.289 E8.83621
G1 X162.774 Y71.612 E8.96889
G1 X163.907 Y72.072 E9.11531
G1 X164.758 Y72.487 E9.22867
G1 X165.998 Y73.227 E9.40157
G1 X167.575 Y74.277 E9.62842
G1 X168.525 Y74.96 E9.76852
G1 X169.397 Y75.701 E9.90554
G1 X170.023 Y76.312 E10.01028
G1 X170.788 Y77.162 E10.1472
G1 X171.647 Y78.317 E10.31955
G1 X172.774 Y80.002 E10.56228
G1 X173.277 Y80.818 E10.67705
G1 X173.845 Y81.911 E10.82454
G1 X174.204 Y82.747 E10.93348
G1 X174.575 Y83.799 E11.06705
G1 X174.95 Y85.301 E11.25241
G1 X175.318 Y87.139 E11.47686
G1 X175.482 Y88.175 E11.60245
G1 X175.575 Y89.195 E11.72509
G1 X175.6 Y90.006 E11.82224
G1 X175.6 Y219.989 E27.38595
G1 X175.552 Y221.138 E27.52364
G1 X175.438 Y222.141 E27.64451
G1 X175.326 Y222.809 E27.72561
G1 X174.939 Y224.757 E27.96342
G1 X174.711 Y225.714 E28.08121
G1 X174.388 Y226.774 E28.21389
G1 X173.928 Y227.908 E28.36042
G1 X173.513 Y228.759 E28.47379
G1 X172.774 Y229.995 E28.64622
G1 X171.642 Y231.694 E28.89067
G1 X170.98 Y232.595 E29.02454
G1 X170.299 Y233.397 E29.15052
G1 X169.688 Y234.023 E29.25526
G1 X168.838 Y234.788 E29.39218
G1 X167.683 Y235.647 E29.56453
G1 X165.997 Y236.774 E29.80736
G1 X165.181 Y237.278 E29.9222
G1 X164.238 Y237.774 E30.04977
G1 X163.252 Y238.204 E30.17857
G1 X162.204 Y238.574 E30.31165
G1 X160.81 Y238.925 E30.48377
G1 X158.831 Y239.322 E30.72545
G1 X157.825 Y239.482 E30.84742
G1 X156.802 Y239.575 E30.97041
G1 X155.976 Y239.6 E31.06936
G1 X103.992 Y239.599 E37.29374
G1 X102.862 Y239.552 E37.42916
G1 X101.859 Y239.438 E37.55003
G1 X101.191 Y239.326 E37.63113
G1 X99.262 Y238.943 E37.86661
G1 X98.286 Y238.711 E37.98673
G1 X97.24 Y238.393 E38.11764
G1 X96.179 Y237.97 E38.2544
G1 X95.238 Y237.511 E38.37976
G1 X94.001 Y236.772 E38.55229
G1 X92.424 Y235.722 E38.77914
G1 X91.477 Y235.041 E38.91881
G1 X90.601 Y234.297 E39.05642
G1 X89.976 Y233.687 E39.16099
G1 X89.209 Y232.834 E39.29835
G1 X88.351 Y231.681 E39.47043
G1 X87.225 Y229.996 E39.71309
G1 X86.72 Y229.177 E39.8283
G1 X86.224 Y228.234 E39.95588
G1 X85.794 Y227.248 E40.08468
G1 X85.425 Y226.204 E40.21726
G1 X85.075 Y224.81 E40.38935
G1 X84.674 Y222.811 E40.63347
G1 X84.518 Y221.825 E40.753
G1 X84.425 Y220.801 E40.87612
G1 X84.4 Y219.994 E40.97279
G1 X84.401 Y90.011 E56.5365
G1 X84.448 Y88.862 E56.67419
G1 X84.562 Y87.859 E56.79506
G1 X84.674 Y87.191 E56.87616
G1 X85.061 Y85.244 E57.11385
G1 X85.29 Y84.283 E57.23214
G1 X85.611 Y83.23 E57.36395
G1 X86.072 Y82.092 E57.51096
G1 X86.487 Y81.241 E57.62433
G1 X87.226 Y80.005 E57.79676
G1 X88.277 Y78.426 E58.02387
G1 X88.96 Y77.475 E58.16407
G1 X89.701 Y76.603 E58.30108
G0 F7200 X90.219 Y76.643
G1 F1350 X175.2 Y161.624 E72.69117
G0 F7200 X175.2 Y163.886
G1 F1350 X89.173 Y77.86 E87.25829
G0 F7200 X88.244 Y79.193
G1 F1350 X175.2 Y166.149 E101.98281
G0 F7200 X175.2 Y168.412
G1 F1350 X87.354 Y80.566 E116.85803
G0 F7200 X86.549 Y82.023
G1 F1350 X175.2 Y170.675 E131.86965
G0 F7200 X175.2 Y172.937
G1 F1350 X85.902 Y83.64 E146.99066
G0 F7200 X85.43 Y85.43
G1 F1350 X175.2 Y175.2 E162.19168
G0 F7200 X175.2 Y177.463
G1 F1350 X85.057 Y87.319 E177.45595
G0 F7200 X84.828 Y89.353
G1 F1350 X175.2 Y179.726 E192.75899
G0 F7200 X175.2 Y181.988
G1 F1350 X84.8 Y91.588 E208.06669
G0 F7200 X84.8 Y93.851
G1 F1350 X175.2 Y184.251 E223.37439
G0 F7200 X175.2 Y186.514
G1 F1350 X84.8 Y96.114 E238.68209
G0 F7200 X84.8 Y98.376
G1 F1350 X175.2 Y188.777 E253.98988
G0 F7200 X175.2 Y191.039
G1 F1350 X84.8 Y100.639 E269.29758
G0 F7200 X84.8 Y102.902
G1 F1350 X175.2 Y193.302 E284.60528
G0 F7200 X175.2 Y195.565
G1 F1350 X84.8 Y105.165 E299.91298
G0 F7200 X84.8 Y107.427
G1 F1350 X175.2 Y197.827 E315.22068
G0 F7200 X175.2 Y200.09
G1 F1350 X84.8 Y109.69 E330.52838
G0 F7200 X84.8 Y111.953
G1 F1350 X175.2 Y202.353 E345.83608
G0 F7200 X175.2 Y204.616
G1 F1350 X84.8 Y114.216 E361.14377
G0 F7200 X84.8 Y116.478
G1 F1350 X175.2 Y206.878 E376.45147
G0 F7200 X175.2 Y209.141
G1 F1350 X84.8 Y118.741 E391.75917
G0 F7200 X84.8 Y121.004
G1 F1350 X175.2 Y211.404 E407.06687
G0 F7200 X175.2 Y213.667
G1 F1350 X84.8 Y123.267 E422.37457
G0 F7200 X84.8 Y125.529
G1 F1350 X175.2 Y215.929 E437.68227
G0 F7200 X175.2 Y218.192
G1 F1350 X84.8 Y127.792 E452.98997
G0 F7200 X84.8 Y130.055
G1 F1350 X175.181 Y220.436 E468.29446
G0 F7200 X174.973 Y222.491
G1 F1350 X84.8 Y132.318 E483.56372
G0 F7200 X84.8 Y134.58
G1 F1350 X174.605 Y224.385 E498.77066
G0 F7200 X174.148 Y226.191
G1 F1350 X84.8 Y136.843 E513.90023
G0 F7200 X84.8 Y139.106
G1 F1350 X173.521 Y227.827 E528.92362
G0 F7200 X172.726 Y229.294
G1 F1350 X84.8 Y141.369 E543.8123
G0 F7200 X84.8 Y143.631
G1 F1350 X171.841 Y230.673 E558.5513
G0 F7200 X170.914 Y232.008
G1 F1350 X84.8 Y145.894 E573.13323
G0 F7200 X84.8 Y148.157
G1 F1350 X169.888 Y233.244 E587.54135
G0 F7200 X168.727 Y234.347
G1 F1350 X84.8 Y150.419 E601.75305
G0 F7200 X84.8 Y152.682
G1 F1350 X167.442 Y235.324 E615.74706
G0 F7200 X166.086 Y236.231
G1 F1350 X84.8 Y154.945 E629.51146
G0 F7200 X84.799 Y157.207
G1 F1350 X164.68 Y237.087 E643.03786
G0 F7200 X163.143 Y237.814
G1 F1350 X84.799 Y159.47 E656.30408
G0 F7200 X84.799 Y161.732
G1 F1350 X161.423 Y238.357 E669.27914
G0 F7200 X159.569 Y238.765
G1 F1350 X84.799 Y163.995 E681.94016
G0 F7200 X84.799 Y166.258
G1 F1350 X157.637 Y239.096 E694.27404
G0 F7200 X155.477 Y239.198
G1 F1350 X84.799 Y168.521 E706.24207
G0 F7200 X84.799 Y170.783
G1 F1350 X153.214 Y239.198 E717.82698
G0 F7200 X150.951 Y239.198
G1 F1350 X84.799 Y173.046 E729.0287
G0 F7200 X84.799 Y175.309
G1 F1350 X148.688 Y239.198 E739.84721
G0 F7200 X146.426 Y239.198
G1 F1350 X84.799 Y177.572 E750.28261
G0 F7200 X84.799 Y179.834
G1 F1350 X144.163 Y239.198 E760.33489
G0 F7200 X141.9 Y239.198
G1 F1350 X84.799 Y182.097 E770.00397
G0 F7200 X84.799 Y184.36
G1 F1350 X139.638 Y239.198 E779.28994
G0 F7200 X137.375 Y239.198
G1 F1350 X84.799 Y186.623 E788.1927
G0 F7200 X84.799 Y188.885
G1 F1350 X135.112 Y239.198 E796.71235
G0 F7200 X132.849 Y239.198
G1 F1350 X84.799 Y191.148 E804.8488
G0 F7200 X84.799 Y193.411
G1 F1350 X130.587 Y239.198 E812.60213
G0 F7200 X128.324 Y239.198
G1 F1350 X84.799 Y195.674 E819.97227
G0 F7200 X84.799 Y197.936
G1 F1350 X126.061 Y239.198 E826.95928
G0 F7200 X123.798 Y239.198
G1 F1350 X84.799 Y200.199 E833.5631
G0 F7200 X84.799 Y202.462
G1 F1350 X121.536 Y239.198 E839.7838
G0 F7200 X119.273 Y239.198
G1 F1350 X84.799 Y204.725 E845.6213
G0 F7200 X84.799 Y206.987
G1 F1350 X117.01 Y239.198 E851.07568
G0 F7200 X114.747 Y239.198
G1 F1350 X84.799 Y209.25 E856.14687
G0 F7200 X84.799 Y211.513
G1 F1350 X112.485 Y239.198 E860.83493
G0 F7200 X110.222 Y239.198
G1 F1350 X84.799 Y213.776 E865.1398
G0 F7200 X84.799 Y216.038
G1 F1350 X107.959 Y239.198 E869.06155
G0 F7200 X105.696 Y239.198
G1 F1350 X84.799 Y218.301 E872.6001
G0 F7200 X84.817 Y220.581
G1 F1350 X103.409 Y239.173 E875.74834
G0 F7200 X100.815 Y238.842
G1 F1350 X85.157 Y223.184 E878.39976
G0 F7200 X85.813 Y226.103
G1 F1350 X97.878 Y238.168 E880.44276
G0 F7200 X93.214 Y235.767
G1 F1350 X88.236 Y230.789 E881.2857
G0 F7200 X175.2 Y159.361
G1 F1350 X91.387 Y75.547 E895.47809
G0 F7200 X92.688 Y74.586
G1 F1350 X175.2 Y157.098 E909.45009
G0 F7200 X175.2 Y154.835
G1 F1350 X94.044 Y73.679 E923.19247
G0 F7200 X95.462 Y72.835
G1 F1350 X175.2 Y152.573 E936.69475
G0 F7200 X175.2 Y150.31
G1 F1350 X97.015 Y72.125 E949.93404
G0 F7200 X98.75 Y71.598
G1 F1350 X175.2 Y148.047 E962.87946
G0 F7200 X175.2 Y145.784
G1 F1350 X100.613 Y71.197 E975.5095
G0 F7200 X102.563 Y70.884
G1 F1350 X175.2 Y143.522 E987.80943
G0 F7200 X175.2 Y141.259
G1 F1350 X104.742 Y70.801 E999.74029
G0 F7200 X107.005 Y70.801
G1 F1350 X175.2 Y138.996 E1011.28795
G0 F7200 X175.2 Y136.733
G1 F1350 X109.267 Y70.801 E1022.45249
G0 F7200 X111.53 Y70.801
G1 F1350 X175.2 Y134.471 E1033.23392
G0 F7200 X175.2 Y132.208
G1 F1350 X113.793 Y70.801 E1043.63215
G0 F7200 X116.056 Y70.801
G1 F1350 X175.2 Y129.945 E1053.64718
G0 F7200 X175.2 Y127.682
G1 F1350 X118.318 Y70.801 E1063.27909
G0 F7200 X120.581 Y70.801
G1 F1350 X175.2 Y125.42 E1072.52789
G0 F7200 X175.2 Y123.157
G1 F1350 X122.844 Y70.801 E1081.39349
G0 F7200 X125.106 Y70.801
G1 F1350 X175.2 Y120.894 E1089.87597
G0 F7200 X175.2 Y118.632
G1 F1350 X127.369 Y70.801 E1097.97533
G0 F7200 X129.632 Y70.801
G1 F1350 X175.2 Y116.369 E1105.6915
G0 F7200 X175.2 Y114.106
G1 F1350 X131.895 Y70.801 E1113.02446
G0 F7200 X134.158 Y70.801
G1 F1350 X175.2 Y111.843 E1119.97423
G0 F7200 X175.2 Y109.581
G1 F1350 X136.421 Y70.801 E1126.54087
G0 F7200 X138.684 Y70.801
G1 F1350 X175.2 Y107.318 E1132.72432
G0 F7200 X175.2 Y105.055
G1 F1350 X140.946 Y70.801 E1138.52465
G0 F7200 X143.209 Y70.801
G1 F1350 X175.2 Y102.792 E1143.94178
G0 F7200 X175.2 Y100.53
G1 F1350 X145.472 Y70.801 E1148.9758
G0 F7200 X147.735 Y70.801
G1 F1350 X175.2 Y98.267 E1153.62661
G0 F7200 X175.2 Y96.004
G1 F1350 X149.997 Y70.801 E1157.89431
G0 F7200 X152.26 Y70.801
G1 F1350 X175.2 Y93.741 E1161.77881
G0 F7200 X175.2 Y91.479
G1 F1350 X154.523 Y70.801 E1165.28019
G0 F7200 X156.819 Y70.835
G1 F1350 X175.172 Y89.188 E1168.38796
G0 F7200 X174.79 Y86.543
G1 F1350 X159.458 Y71.211 E1170.98417
G0 F7200 X162.437 Y71.928
G1 F1350 X174.064 Y83.555 E1172.95301
G0 F7200 X171.315 Y78.543
G1 F1350 X167.461 Y74.688 E1173.6057
G0 F600 X167.461 Y74.688 Z0.66
G0 F7200 X90.699 Y76.158
;TIME_ELAPSED:445.397174
;LAYER:-5
;TYPE:SUPPORT
G1 F1350 X89.954 Y76.922 E1173.71218
G1 X90.878 Y75.998 E1173.84256
G1 X91.416 Y75.52 E1173.91437
G1 X92.649 Y74.606 E1174.06752
G1 X94.209 Y73.566 E1174.25459
G1 X95.153 Y72.992 E1174.36483
G1 X95.456 Y72.834 E1174.39893
G1 X86.814 Y81.477 E1175.61848
G1 X86.353 Y82.444 E1175.72537
G1 X86 Y83.331 E1175.82063
G1 X85.833 Y83.872 E1175.87712
G1 X97.891 Y71.813 E1177.57871
G1 X99.392 Y71.437 E1177.73311
G1 X99.754 Y71.365 E1177.76993
G1 X85.365 Y85.754 E1179.80038
G1 X85.013 Y87.52 E1179.98006
G1 X101.504 Y71.029 E1182.30711
G1 X102.196 Y70.917 E1182.37706
G1 X103.115 Y70.832 E1182.46915
G1 X84.837 Y89.11 E1185.04837
G1 X84.799 Y90.029 E1185.14015
G1 X84.8 Y90.561 E1185.19323
G1 X104.562 Y70.8 E1187.98179
G1 X105.976 Y70.8 E1188.12288
G1 X84.8 Y91.976 E1191.11105
G1 X84.8 Y93.39 E1191.25214
G1 X107.39 Y70.8 E1194.43983
G1 X108.804 Y70.8 E1194.58092
G1 X84.8 Y94.804 E1197.96814
G1 X84.8 Y96.218 E1198.10923
G1 X110.218 Y70.8 E1201.69599
G1 X111.633 Y70.8 E1201.83717
G1 X84.8 Y97.633 E1205.6236
G1 X84.8 Y99.047 E1205.76469
G1 X113.047 Y70.8 E1209.75065
G1 X114.461 Y70.8 E1209.89174
G1 X84.8 Y100.461 E1214.07722
G1 X84.8 Y101.875 E1214.21831
G1 X115.875 Y70.8 E1218.60333
G1 X117.289 Y70.8 E1218.74442
G1 X84.8 Y103.289 E1223.32897
G1 X84.8 Y104.704 E1223.47016
G1 X118.704 Y70.8 E1228.25438
G1 X120.118 Y70.8 E1228.39547
G1 X84.8 Y106.118 E1233.37922
G1 X84.8 Y107.532 E1233.52031
G1 X121.532 Y70.8 E1238.70359
G1 X122.946 Y70.8 E1238.84468
G1 X84.8 Y108.946 E1244.22749
G1 X84.8 Y110.36 E1244.36858
G1 X124.36 Y70.8 E1249.95093
G1 X125.775 Y70.8 E1250.09212
G1 X84.8 Y111.775 E1255.87413
G1 X84.8 Y113.189 E1256.01522
G1 X127.189 Y70.8 E1261.99677
G1 X128.603 Y70.8 E1262.13786
G1 X84.8 Y114.603 E1268.31893
G1 X84.8 Y116.017 E1268.46002
G1 X130.017 Y70.8 E1274.84063
G1 X131.432 Y70.8 E1274.98182
G1 X84.8 Y117.432 E1281.5621
G1 X84.8 Y118.846 E1281.70319
G1 X132.846 Y70.8 E1288.483
G1 X134.26 Y70.8 E1288.62409
G1 X84.8 Y120.26 E1295.60343
G1 X84.8 Y121.674 E1295.74452
G1 X135.674 Y70.8 E1302.92339
G1 X137.088 Y70.8 E1303.06448
G1 X84.8 Y123.088 E1310.44288
G1 X84.8 Y124.503 E1310.58407
G1 X138.503 Y70.8 E1318.16214
G1 X139.917 Y70.8 E1318.30323
G1 X84.8 Y125.917 E1326.08083
G1 X84.8 Y127.331 E1326.22192
G1 X141.331 Y70.8 E1334.19906
G1 X142.745 Y70.8 E1334.34015
G1 X84.8 Y128.745 E1342.51681
G1 X84.8 Y130.159 E1342.6579
G1 X144.159 Y70.8 E1351.0341
G1 X145.574 Y70.8 E1351.17529
G1 X84.8 Y131.574 E1359.75116
G1 X84.8 Y132.988 E1359.89225
G1 X146.988 Y70.8 E1368.66764
G1 X148.402 Y70.8 E1368.80873
G1 X84.8 Y134.402 E1377.78366
G1 X84.8 Y135.816 E1377.92475
G1 X149.816 Y70.8 E1387.09921
G1 X151.231 Y70.8 E1387.2404
G1 X84.8 Y137.231 E1396.61453
G1 X84.8 Y138.645 E1396.75562
G1 X152.645 Y70.8 E1406.32929
G1 X154.059 Y70.8 E1406.47037
G1 X84.8 Y140.059 E1416.24357
G1 X84.8 Y141.473 E1416.38466
G1 X155.473 Y70.8 E1426.35738
G1 X155.986 Y70.801 E1426.40857
G1 X156.852 Y70.835 E1426.49505
G1 X84.8 Y142.887 E1436.66236
G1 X84.8 Y144.302 E1436.80355
G1 X158.138 Y70.963 E1447.1524
G1 X158.816 Y71.081 E1447.22107
G1 X159.332 Y71.184 E1447.27357
G1 X84.8 Y145.716 E1457.79085
G1 X84.8 Y147.13 E1457.93193
G1 X160.517 Y71.413 E1468.61642
G1 X161.657 Y71.687 E1468.73341
G1 X84.8 Y148.544 E1479.57876
G1 X84.8 Y149.958 E1479.71985
G1 X162.733 Y72.025 E1490.71704
G1 X163.743 Y72.43 E1490.82562
G1 X84.8 Y151.373 E1501.96533
G1 X84.8 Y152.787 E1502.10642
G1 X164.683 Y72.904 E1513.37877
G1 X165.568 Y73.433 E1513.48165
G1 X84.8 Y154.201 E1524.87889
G1 X84.8 Y155.615 E1525.01998
G1 X166.425 Y73.99 E1536.53815
G1 X167.273 Y74.556 E1536.63988
G1 X84.8 Y157.03 E1548.27778
G1 X84.8 Y158.444 E1548.41887
G1 X168.109 Y75.134 E1560.17474
G1 X168.875 Y75.783 E1560.27492
G1 X84.8 Y159.858 E1572.13881
G1 X84.8 Y161.272 E1572.2799
G1 X169.621 Y76.451 E1584.24906
G1 X170.286 Y77.201 E1584.34907
G1 X84.8 Y162.686 E1596.412
G1 X84.8 Y164.101 E1596.55319
G1 X170.906 Y77.995 E1608.70368
G1 X171.509 Y78.805 E1608.80443
G1 X84.8 Y165.515 E1621.04008
G1 X84.8 Y166.929 E1621.18117
G1 X172.066 Y79.663 E1633.49535
G1 X172.633 Y80.511 E1633.59713
G1 X84.8 Y168.343 E1645.99125
G1 X84.8 Y169.757 E1646.13234
G1 X173.142 Y81.416 E1658.59828
G1 X173.411 Y81.933 E1658.65643
G1 X173.601 Y82.37 E1658.70397
G1 X84.8 Y171.172 E1671.23482
G1 X84.8 Y172.586 E1671.37591
G1 X174.004 Y83.382 E1683.96356
G1 X174.17 Y83.855 E1684.01358
G1 X174.326 Y84.474 E1684.07728
G1 X84.8 Y174 E1696.71036
G1 X84.8 Y175.414 E1696.85145
G1 X174.603 Y85.611 E1709.52362
G1 X174.838 Y86.79 E1709.64358
G1 X84.8 Y176.829 E1722.34898
G1 X84.8 Y178.243 E1722.49007
G1 X175.063 Y87.98 E1735.22716
G1 X175.177 Y89.28 E1735.35737
G1 X84.8 Y179.657 E1748.11054
G1 X84.8 Y181.071 E1748.25163
G1 X175.199 Y90.673 E1761.00784
G1 X175.199 Y92.087 E1761.14893
G1 X84.8 Y182.485 E1773.90513
G1 X84.8 Y183.9 E1774.04632
G1 X175.199 Y93.501 E1786.8026
G1 X175.199 Y94.915 E1786.94368
G1 X84.8 Y185.314 E1799.69996
G1 X84.8 Y186.728 E1799.84105
G1 X175.199 Y96.329 E1812.59732
G1 X175.199 Y97.744 E1812.73851
G1 X84.8 Y188.142 E1825.49472
G1 X84.8 Y189.556 E1825.63581
G1 X175.199 Y99.158 E1838.39201
G1 X175.199 Y100.572 E1838.5331
G1 X84.8 Y190.971 E1851.28938
G1 X84.8 Y192.385 E1851.43047
G1 X175.199 Y101.986 E1864.18674
G1 X175.199 Y103.4 E1864.32783
G1 X84.8 Y193.799 E1877.08411
